X:1
T: Harry Glasgow's Hornpipe
C:William Macpherson
R:Reel
Q: 232
K:G
M:4/4
L:1/8
|:DC|B,2 G,B, DB, GD|E2 G,C EC GE|F2 DF d^c =cA|Bd BG DG DB,|
G,2 B,G, DB, G2|C2 EG cG e2|fd cA ^cd ef|g2 G2 G2 dc|
Bd gb gd BG|EG ce d2 d1/2c1/2B1/2A1/2|GD GB dB gB|A^A B^c d^d ef|
g2 G,B, DB, GD|E2 G,C EC GE|DF Ad cA dD|G2 B2 G,2:|
